!!!!SEGMENT: pl-wtm--r-2545--001-005_hertz-michal--firdusi-no-5-odejscie-nerydy.krn
!!!cenid: 18xx:3107
!!!COM: Hertz, Michał
!!!COM-rismID: pe41023359
!!!CDT: 1844/09/28-~1918
!!!CNT: Polish
!!!OPR: Firdusi
!!!OTL: No. 5 – Odejście Nerydy
!!!OMV: 005
!!!PDT:
!!!AGN:
!!!SMS-siglum: PL-Wtm
!!!SMS-shelfmark: R 2545
!!!SMS-shelfwork: 001-005 M
!!!SMS-variant:
!!!SMS-altvar:
!!!NIFC-rismSourceID: 1001081950
!!!NIFC-rismChildID: 1001081950
!!!NIFC-islandoraID:
!!!URL-pdf-islandora:
!!!URL-scan:
!!!IIIF:
!!!ONB-nifc:
!!!OMD: Allegro [quarter] = 108
!!!AIN: 1 alto 1 clars 1 cor 3 empty 1 fagot 1 oboe 2 violn
!!!key:
**kern	**dynam	**kern	**dynam	**kern	**dynam	**kern	**dynam	**kern	**dynam	**kern	**text	**kern	**dynam	**kern	**dynam	**kern	**dynam	**kern	**dynam
*part10	*part10	*part9	*part9	*part8	*part8	*part7	*part7	*part6	*part6	*part5	*part5	*part4	*part4	*part3	*part3	*part2	*part2	*part1	*part1
*staff10	*	*staff9	*	*staff8	*	*staff7	*	*staff6	*	*staff5	*staff5	*staff4	*	*staff3	*	*staff2	*	*staff1	*
*Iempty	*	*Iempty	*	*Ialto	*	*Ivioln	*	*Ivioln	*	*Iempty	*	*Icor	*	*Ifagot	*	*Iclars	*	*Ioboe	*
*I"[Bassi]	*	*I"Bassi	*	*I"Alto	*	*I"[Violino II]	*	*I"Violini	*	*I"Śpiew	*	*I"Corno in F	*	*I"Fag	*	*I"Clarinetto in B♭	*	*I"Oboe	*
*I'C-b.	*	*I'C-b.	*	*I'Va	*	*I'Vn II	*	*I'Vn I	*	*I'C.	*	*I'C. in F	*	*I'Fag.	*	*I'Cl. in B♭	*	*I'Ob.	*
*clefF4	*	*clefF4	*	*clefC3	*	*clefG2	*	*clefG2	*	*clefG2	*	*clefG2	*	*clefF4	*	*clefG2	*	*clefG2	*
*ITrd0c0	*	*ITrd0c0	*	*	*	*	*	*	*	*	*	*ITrd4c7	*	*	*	*ITrd1c2	*	*	*
*k[f#]	*	*k[f#]	*	*k[f#]	*	*k[f#]	*	*k[f#]	*	*k[f#]	*	*k[f#]	*	*k[f#]	*	*k[f#]	*	*k[f#]	*
*e:	*	*e:	*	*e:	*	*e:	*	*e:	*	*e:	*	*e:	*	*e:	*	*e:	*	*e:	*
*M4/4	*	*M4/4	*	*M4/4	*	*M4/4	*	*M4/4	*	*M4/4	*	*M4/4	*	*M4/4	*	*M4/4	*	*M4/4	*
*met(c)	*	*met(c)	*	*met(c)	*	*met(c)	*	*met(c)	*	*met(c)	*	*met(c)	*	*met(c)	*	*met(c)	*	*met(c)	*
*MM108	*	*MM108	*	*MM108	*	*MM108	*	*MM108	*	*MM108	*	*MM108	*	*MM108	*	*MM108	*	*MM108	*
*	*	*	*	*	*	*2\right	*	*	*	*	*	*2\right	*	*	*	*2\right	*	*	*
!	!	!	!	!	!	!	!	!	!	!	!	!LO:TX:t=P:problem=w źródle brak znaków przykluczowych [w kodzie znaki przykluczowe zgodne z transpozycją]	!	!	!	!	!	!	!
!	!	!	!	!	!	!	!LO:DY:b:rj	!	!	!	!	!	!LO:DY:b:rj	!	!	!	!LO:DY:b:rj	!	!
!	!	!	!	!	!	!	!	!	!	!	!	!LO:N:acc=#	!	!	!	!	!	!	!
4r	.	4r	.	4r	.	[<4B/	sf	4r	.	4r	.	[<4B/	sf	4r	.	[>4B/	sf	4r	.
=1	=1	=1	=1	=1	=1	=1	=1	=1	=1	=1	=1	=1	=1	=1	=1	=1	=1	=1	=1
*	*	*	*	*	*	*	*	*	*	*	*	*	*	*	*	*^	*	*	*
*	*	*	*^	*	*	*	*	*	*	*	*	*	*	*	*	*	*	*	*	*
*2\right	*	*2\right	*	*	*2\right	*	*	*	*2\right	*	*2\right	*	*	*	*2\right	*	*	*	*	*2\right	*
!LO:TX:b:Bi:t=piz	!	!	!	!	!LO:TX:b:Bi:t=piz	!	!	!	!LO:TX:b:Bi:t=pizz.	!	!	!	!	!	!	!	!	!	!	!	!
!	!LO:DY:b:rj	!	!	!	!	!LO:DY:b	!	!	!	!LO:DY:b:rj	!	!	!	!	!	!	!	!	!LO:DY:a	!	!LO:DY:b
8E\	p	4r	.	.	8G/	p	4B/]	.	4e 4B/	p	[>4b\	Błę-	4B/]	.	4r	.	1B]	1G	p	[>1e^>	p
8r	.	.	.	.	8r	.	.	.	.	.	.	.	.	.	.	.	.	.	.	.	.
!	!	!	!LO:DY:b:rj	!LO:DY:b	!	!	!	!	!	!	!	!	!	!	!	!LO:DY:b:rj	!	!	!	!	!
!	!	!	!	!	!	!	!	!	!	!	!LO:TUP:a:problem=klamra łukowa	!	!	!	!	!	!	!	!	!	!
4r	.	2E\	sf	p	4r	.	4r	.	4r	.	12b\]	.	4r	.	2E^>\	p	.	.	.	.	.
.	.	.	.	.	.	.	.	.	.	.	12a#X\	-kit	.	.	.	.	.	.	.	.	.
.	.	.	.	.	.	.	.	.	.	.	12b\	się	.	.	.	.	.	.	.	.	.
!	!	!	!	!	!LO:TX:b:Bi:t=arco	!	!	!	!	!	!	!	!	!	!	!	!	!	!	!	!
!	!	!	!	!	!	!LO:DY:b	!	!LO:DY:b	!	!	!	!	!	!	!	!	!	!	!	!	!
2r	.	.	.	.	(>32B\LLL	sf	(32B/LLL	sf	4r	.	8ee\	nie-	2r	.	.	.	.	.	.	.	.
!	!	!	!	!	!	!	!	!LO:DY:b	!	!	!	!	!	!	!	!	!	!	!	!	!
.	.	.	.	.	32c\JJ	.	32c/JJ	p	.	.	.	.	.	.	.	.	.	.	.	.	.
.	.	.	.	.	8.B\J)	.	8.B/J)	.	.	.	.	.	.	.	.	.	.	.	.	.	.
.	.	.	.	.	.	.	.	.	.	.	8b\	-ba	.	.	.	.	.	.	.	.	.
.	.	(<16qqD/LL	.	.	.	.	.	.	.	.	.	.	.	.	(<16qqD/LL	.	.	.	.	.	.
!	!	!	!	!	!LO:TX:b:Bi:t=piz	!	!LO:TX:b:Bi:t=piz	!	!	!	!	!	!	!	!	!	!	!	!	!	!
.	.	16qqE/JJ)	.	.	.	.	.	.	.	.	.	.	.	.	16qqE/JJ)	.	.	.	.	.	.
!	!	!LO:TUP:a:problem=klamra łukowa	!	!	!	!	!	!	!	!	!	!	!	!	!LO:TUP:a:problem=klamra łukowa	!	!	!	!	!	!
.	.	(>&(<12D\L	.	.	4G/	.	4B/	.	4e 4B/	.	4r	.	.	.	(>12D\L	.	.	.	.	.	.
.	.	12C\	.	.	.	.	.	.	.	.	.	.	.	.	12C\	.	.	.	.	.	.
.	.	12BB\J)&)	.	.	.	.	.	.	.	.	.	.	.	.	12BB\J)	.	.	.	.	.	.
*	*	*	*v	*v	*	*	*	*	*	*	*	*	*	*	*	*	*	*	*	*	*
*	*	*	*	*	*	*	*	*	*	*	*	*	*	*	*	*v	*v	*	*	*
=2	=2	=2	=2	=2	=2	=2	=2	=2	=2	=2	=2	=2	=2	=2	=2	=2	=2	=2	=2
8r	.	4C/	.	4F#'</	.	4A'</	.	4e/	.	[>4an/	stro-	4r	.	4C'</	.	(>2A/ &(<2F#/	.	4e'</]	.
!	!LO:DY:b:rj	!	!	!	!	!	!	!	!	!	!	!	!	!	!	!	!	!	!
8F#\L	pp	.	.	.	.	.	.	.	.	.	.	.	.	.	.	.	.	.	.
!	!	!LO:TX:b:Bi:t=pizz.	!	!	!	!	!	!	!	!	!	!	!	!	!	!	!	!	!
!	!	!	!	!	!	!	!	!	!	!	!	!	!LO:DY:b	!	!	!	!	!	!
!	!	!	!	!	!	!	!	!	!	!LO:TUP:a:problem=klamra łukowa	!	!	!	!	!	!	!	!	!
8B\	.	4BB/	.	4F#'</	.	4A'</	.	4d#X/	.	12a/]	.	(<2BX/	p	4BB'</	.	.	.	4d#X'</	.
.	.	.	.	.	.	.	.	.	.	12g/	-i	.	.	.	.	.	.	.	.
8BB\J	.	.	.	.	.	.	.	.	.	.	.	.	.	.	.	.	.	.	.
.	.	.	.	.	.	.	.	.	.	12f#/	ob-	.	.	.	.	.	.	.	.
8E\L	.	4EE/	.	4G/	.	4A'</	.	4e/	.	8g/	-fi-	.	.	4E'<\	.	4B/) 4G/&)	.	4e'</	.
8EE\J	.	.	.	.	.	.	.	.	.	8e/	-cie,	.	.	.	.	.	.	.	.
!	!	!	!LO:DY:b	!	!	!	!	!	!	!	!	!	!	!	!	!	!	!	!
4r	.	4E\	sf	4r	.	4r	.	4r	.	8r	.	4E/)	.	4r	.	4r	.	4r	.
.	.	.	.	.	.	.	.	.	.	8e/	o-	.	.	.	.	.	.	.	.
=3	=3	=3	=3	=3	=3	=3	=3	=3	=3	=3	=3	=3	=3	=3	=3	=3	=3	=3	=3
*	*	*	*	*	*	*	*	*	*	*	*	*	*	*	*	*^	*	*	*
!	!	!	!	!	!	!	!	!	!	!	!	!	!	!	!LO:DY:b	!	!	!	!	!
1r	.	4BB/	.	4F#/	.	4r	.	4d#X 4B/	.	16f#/	-gro-	(>2F#X/	.	(>2BB/	p	8B/	1rB	.	(>2d#X/	.
.	.	.	.	.	.	.	.	.	.	16e#X/	-dy	.	.	.	.	.	.	.	.	.
.	.	.	.	.	.	.	.	.	.	8f#/	zaś,	.	.	.	.	8r	.	.	.	.
!	!	!	!	!	!	!LO:TX:b:Bi:t=arco:rj	!	!	!	!	!	!	!	!	!	!	!	!	!	!
!	!	!	!	!	!	!	!LO:DY:b	!	!	!	!	!	!	!	!	!	!	!LO:DY:b	!	!
.	.	4r	.	4r	.	(<32B/LLL	sf	4r	.	4r	.	.	.	.	.	(<32B/LLL	.	sf	.	.
.	.	.	.	.	.	32c/JJ	.	.	.	.	.	.	.	.	.	32c/JJ	.	.	.	.
.	.	.	.	.	.	8.B/J)	.	.	.	.	.	.	.	.	.	8.B/J)	.	.	.	.
.	.	4EE/	.	4G/	.	4r	.	4e 4B/	.	8r	.	2G/)	.	2E\)	.	8B/	.	.	2e/)	.
.	.	.	.	.	.	.	.	.	.	8g/	wró-	.	.	.	.	8r	.	.	.	.
!	!	!	!	!	!	!	!LO:DY:b	!	!	!	!	!	!	!	!	!	!	!LO:DY:b	!	!
.	.	4r	.	4r	.	(<32B/LLL	sf	4r	.	8e#/	-żan-	.	.	.	.	(<32B/LLL	.	sf	.	.
.	.	.	.	.	.	32c/JJ	.	.	.	.	.	.	.	.	.	32c/JJ	.	.	.	.
.	.	.	.	.	.	8.B/J)	.	.	.	.	.	.	.	.	.	8.B/J)	.	.	.	.
.	.	.	.	.	.	.	.	.	.	8g/	-ny	.	.	.	.	.	.	.	.	.
=4	=4	=4	=4	=4	=4	=4	=4	=4	=4	=4	=4	=4	=4	=4	=4	=4	=4	=4	=4	=4
2r	.	4BB/	.	4G/	.	4r	.	4d#X 4B/	.	2.f#/	krzew	[>2F#X/	.	[<2BB/	.	8B/	1rB	.	[>2d#X/	.
.	.	.	.	.	.	.	.	.	.	.	.	.	.	.	.	8r	.	.	.	.
!	!	!	!	!	!	!	!LO:DY:b	!	!	!	!	!	!	!	!	!	!	!LO:DY:b	!	!
.	.	4r	.	4r	.	(<32B/LLL	sf	4r	.	.	.	.	.	.	.	(<16B/LL	.	sf	.	.
.	.	.	.	.	.	32c/JJ	.	.	.	.	.	.	.	.	.	.	.	.	.	.
.	.	.	.	.	.	8.B/J)	.	.	.	.	.	.	.	.	.	16c/J	.	.	.	.
.	.	.	.	.	.	.	.	.	.	.	.	.	.	.	.	8B/J)	.	.	.	.
4BB/	.	4r	.	2r	.	2r	.	2r	.	.	.	8F#/]	.	8BB/]	.	2r	.	.	8d#/]	.
.	.	.	.	.	.	.	.	.	.	.	.	8r	.	8r	.	.	.	.	8r	.
.	.	(<&(<16qqAA/LL	.	.	.	.	.	.	.	.	.	.	.	.	.	.	.	.	.	.
!	!	!LO:TX:b:Bi:t=arco	!	!	!	!	!	!	!	!	!	!	!	!	!	!	!	!	!	!
.	.	16qqBB/JJ&)	.	.	.	.	.	.	.	.	.	.	.	.	.	.	.	.	.	.
!	!	!LO:TUP:b:problem=klamra łukowa	!	!	!	!	!	!	!	!	!	!	!	!	!	!	!	!	!	!
4r	.	&(<12AA/L	.	.	.	.	.	.	.	4r	.	4r	.	4r	.	.	.	.	4r	.
.	.	12GG/	.	.	.	.	.	.	.	.	.	.	.	.	.	.	.	.	.	.
.	.	12EE/J&)	.	.	.	.	.	.	.	.	.	.	.	.	.	.	.	.	.	.
*	*	*	*	*	*	*	*	*	*	*	*	*	*	*	*	*v	*v	*	*	*
=5	=5	=5	=5	=5	=5	=5	=5	=5	=5	=5	=5	=5	=5	=5	=5	=5	=5	=5	=5
!	!	!	!	!	!	!	!	!	!	!	!	!	!	!	!	!	!LO:DY:b	!	!LO:DY:b
1r	.	8EE/)	.	8G/	.	2r	.	4e 4B/	.	[>4b\	Wszy-	1r	.	4r	.	1B 1G^>	p	[>1e^>	p
.	.	8r	.	8r	.	.	.	.	.	.	.	.	.	.	.	.	.	.	.
!	!	!	!	!	!	!	!	!	!	!	!	!	!	!	!LO:DY:b:rj	!	!	!	!
.	.	(>2E^>\	.	4r	.	.	.	4r	.	8b\]	.	.	.	2E^>\	p	.	.	.	.
.	.	.	.	.	.	.	.	.	.	8a#X\	-stko	.	.	.	.	.	.	.	.
!	!	!	!	!LO:TX:b:Bi:t=arco:rj	!	!	!	!	!	!	!	!	!	!	!	!	!	!	!
!	!	!	!	!	!LO:DY:b	!	!LO:DY:b	!	!	!	!	!	!	!	!	!	!	!	!
.	.	.	.	(>32B\LLL	sf	(<32B/LLL	sf	4r	.	8b\	co	.	.	.	.	.	.	.	.
.	.	.	.	32c\JJ	.	32c/JJ	.	.	.	.	.	.	.	.	.	.	.	.	.
.	.	.	.	8.B\J)	.	8.B/J)	.	.	.	.	.	.	.	.	.	.	.	.	.
.	.	.	.	.	.	.	.	.	.	8ee\	lu-	.	.	.	.	.	.	.	.
.	.	&(<16qqD/LL)	.	.	.	.	.	.	.	.	.	.	.	(<16qqD/LL	.	.	.	.	.
!	!	!	!	!LO:TX:b:Bi:t=pizo	!	!LO:TX:b:Bi:t=piz	!	!	!	!	!	!	!	!	!	!	!	!	!
.	.	16qqE/JJ&)	.	.	.	.	.	.	.	.	.	.	.	16qqE/JJ)	.	.	.	.	.
!	!	!LO:TUP:a:problem=klamra łukowa	!	!	!	!	!	!	!	!	!	!	!	!LO:TUP:a:problem=klamra łukowa	!	!	!	!	!
.	.	(>12D\L	.	4G/	.	4B/	.	4e 4B/	.	8b\	-dzkie	.	.	(>12D\L	.	.	.	.	.
.	.	12C\	.	.	.	.	.	.	.	.	.	.	.	12C\	.	.	.	.	.
.	.	.	.	.	.	.	.	.	.	8r	.	.	.	.	.	.	.	.	.
.	.	12BB\J)	.	.	.	.	.	.	.	.	.	.	.	12BB\J)	.	.	.	.	.
=6	=6	=6	=6	=6	=6	=6	=6	=6	=6	=6	=6	=6	=6	=6	=6	=6	=6	=6	=6
*	*	*	*	*	*	*	*	*	*	*	*	*	*	*	*	*^	*	*	*
8r	.	8C/	.	4F#/	.	4A/	.	4e/	.	[<4an/	zdo-	4r	.	4C/	.	(>2A/	(<2F#\	.	4e/]	.
!	!LO:DY:b:rj	!	!	!	!	!	!	!	!	!	!	!	!	!	!	!	!	!	!	!
8F#\L	p	8r	.	.	.	.	.	.	.	.	.	.	.	.	.	.	.	.	.	.
!	!	!LO:TX:b:Bi:t=pizo	!	!	!	!	!	!	!	!	!	!	!	!	!	!	!	!	!	!
!	!	!	!	!	!	!	!	!	!	!	!	!	!LO:DY:b	!	!	!	!	!	!	!
!	!	!	!	!	!	!	!	!	!	!	!	!LO:N:acc=#	!	!	!	!	!	!	!	!
!	!	!	!	!	!	!	!	!	!	!LO:TUP:b:problem=klamra łukowa	!	!	!	!	!	!	!	!	!	!
8B\	.	8BB/L	.	4F#/	.	4B/	.	4d#X/	.	12a/L]	.	2B^>/	p	(<8BB/L	.	.	.	.	4d#X/	.
.	.	.	.	.	.	.	.	.	.	12g/J	.	.	.	.	.	.	.	.	.	.
8A\J	.	8AA/J	.	.	.	.	.	.	.	.	.	.	.	8AA/J	.	.	.	.	.	.
.	.	.	.	.	.	.	.	.	.	12f#/	-bi	.	.	.	.	.	.	.	.	.
8G\L	.	4GG/	.	4E/	.	4B/	.	4e/	.	8g/	ży-	.	.	4GG/)	.	4B/)	4G\)	.	4e/	.
8FF#\J	.	.	.	.	.	.	.	.	.	8e/	-cie,	.	.	.	.	.	.	.	.	.
!	!	!	!LO:DY:a	!	!	!	!	!	!	!	!	!	!	!	!	!	!	!	!	!
4r	.	4G\	sf	4r	.	4r	.	4r	.	8r	.	4r	.	4r	.	4r	4ryy	.	4r	.
.	.	.	.	.	.	.	.	.	.	8e/	to	.	.	.	.	.	.	.	.	.
*	*	*	*	*	*	*	*	*	*	*	*	*	*	*	*	*v	*v	*	*	*
=7	=7	=7	=7	=7	=7	=7	=7	=7	=7	=7	=7	=7	=7	=7	=7	=7	=7	=7	=7
4r	.	4r	.	4r	.	4r	.	4r	.	4.ee\	mi-	4r	.	1ryy	.	1ryy	.	1ryy	.
!	!LO:DY:b	!	!LO:DY:b	!	!LO:DY:b	!	!LO:DY:b	!	!LO:DY:b	!	!	!	!LO:DY:b	!	!	!	!	!	!
4A\	sf	4AA/	sf	4F#/	sf	4c/	sf	4e/	sf	.	.	2.A^>/	p	.	.	.	.	.	.
.	.	.	.	.	.	.	.	.	.	8f#/	-łość	.	.	.	.	.	.	.	.
4r	.	4r	.	4r	.	4r	.	4r	.	4cc\	ich	.	.	.	.	.	.	.	.
!	!LO:DY:b	!	!LO:DY:b	!	!LO:DY:b	!	!LO:DY:b	!	!LO:DY:b	!	!	!	!	!	!	!	!	!	!
4F#\	sf	4GG/	sf	4A/	sf	4c/	sf	4e/	sf	8r	.	.	.	.	.	.	.	.	.
.	.	.	.	.	.	.	.	.	.	8cc\	i	.	.	.	.	.	.	.	.
=8	=8	=8	=8	=8	=8	=8	=8	=8	=8	=8	=8	=8	=8	=8	=8	=8	=8	=8	=8
!	!	!	!	!	!	!	!	!	!	!	!	!LO:N:acc=#	!	!	!	!	!	!	!
4r	.	4r	.	4r	.	4r	.	4r	.	4b\	tan	[>2.B/	.	1ryy	.	1ryy	.	1ryy	.
!	!LO:DY:b	!	!LO:DY:b	!	!LO:DY:b	!	!LO:DY:b	!	!LO:DY:b	!	!	!	!	!	!	!	!	!	!
4B\	sf	4BB/	sf	4A/	sf	4B/	sf	4d#X/	sf	8r	.	.	.	.	.	.	.	.	.
.	.	.	.	.	.	.	.	.	.	8g/	i	.	.	.	.	.	.	.	.
4r	.	4r	.	4r	.	4r	.	4r	.	4e;>/	śpiew	.	.	.	.	.	.	.	.
!	!LO:DY:b	!	!LO:DY:b	!	!LO:DY:b	!	!LO:DY:b	!	!LO:DY:b	!	!	!	!	!	!	!	!	!	!
4E\	sf	4E\	sf	4G/	sf	4B/	sf	4e/	sf	4r	.	8B/]	.	.	.	.	.	.	.
.	.	.	.	.	.	.	.	.	.	.	.	8r	.	.	.	.	.	.	.
==	==	==	==	==	==	==	==	==	==	==	==	==	==	==	==	==	==	==	==
*-	*-	*-	*-	*-	*-	*-	*-	*-	*-	*-	*-	*-	*-	*-	*-	*-	*-	*-	*-
!!!system-decoration: [(s1,s2)][(s3,s4)][(s5)]{(s6,s7)}[(s8)]{(s9,s10)}
!!!RDF**kern: > = above
!!!RDF**kern: < = below
!!!RDF**kern: | = vertical stroke
!!!RDF**kern: N = linked
!!!RDF**kern: i = editorial accidental
!!!RDF**kern: l = terminal long
!!!ENC: Marta Opryszak
!!!END: 2021-11-02
!!!EED: Wojciech Jakubiak-Danek
!!!EEV: 2021-11-12
!!!YEC: Copyright 2022 Narodowy Instytut Fryderyka Chopina (https://polishscores.org)
!!!YEM: License CC-BY-4.0 (https://creativecommons.org/licenses/by/4.0)
